X: 387
T: Bir Kız ile
C: Sadettin Kaynak
O: Turkey
F: http://compmusic.upf.edu/node/140
N: karcigar--sarki--duyek--bir_kiz_ile--sadettin_kaynak
N: makam= karcigar
N: form= sarki
N: usul= duyek = 8/4
M: 8/4
L: 1/16
K: C _2/4B _3/4e ^3/4f 
Q: 1/4=60
%%MIDI tuningsystem comma53
z2 cc _1/4B2 c2 d2 c2 d4  | cc _1/4B2 c2 d2 c2 d4 z2  | \
w:   |   | 
gg g2 a2 ^f2 _7/8e2 d2 c2 c2  | 
w:   | 
_1/4B2 B2 A2 A4 z4 z2  | cc _1/4B2 c2 d2 c2 d4 cc  | \
w:   |   | 
_1/4B2 c2 d2 c2 d4 z2 gg  | 
w:   | 
g2 a2 ^f2 _7/8e2 d2 c2 c2 _1/4B2  | \
w:   | 
_1/4B2 A2 A4 z4 z2 ^f4 f2 f2 f6 z2 g4 g2 g2 g6 z2 g4 a2 g2 f2 =e2 d2 g2 g2  | 
w:   | 
=e2 e2 e4 e2 d2 z2 d4 d2 d2 d6 z2 c2  | \
w:   | 
_1/4B2 c2 d4 z4 z4  | A2 _1/4B2 c2 d6 d2 d6 d4 d2 c2 d2 _7/8e4 d2 c2 B2 c4 z4  | 
w:   |   | 
g2 g2 g4 g2 d2 c2 c6 _1/4B4 A4 z2 B2  | \
w:   | 
A2 G2 A4 z4 z4  | g2 g2 g4 g2 d2 c2 c6 _1/4B4 A4 z2 B2  | 
w:   |   | 
A2 G2 A4 z4 z2 cc  | _1/4B2 c2 d2 c2 d4 cc B2  | \
w:   |   | 
c2 d2 c2 d4 z2 gg g2  | 
w:   | 
a2 ^f2 _7/8e2 d2 c2 c2 _1/4B2 B2  | \
w:   | 
A2 A4 z4 z4 _1/4B2  | c2 d4 d4 d2 d6 d2 d6 d2 _7/8e4  | 
w:   |   | 
d2 c2 _1/4B2 A4 z4 B2  | c2 d4 d4 d4 d4 d2 d6 d2 _7/8e4  | \
w:   |   | 
d2 c2 _1/4B2 A4 z4 B2  | 
w:   | 
c2 d2 d6 d2 d4  | d2 d2 d6 d2 _7/8e4  | \
w:   |   | 
d2 c2 _1/4B2 A4 z4 g2  | g2 g4 g2 d2 c2 c4  | 
w:   |   | 
c2 _1/4B2 A6 z2 B2 A2  | G2 A4 z4 z4 g2  | \
w:   |   | 
g2 g4 g2 d2 c2 c4  | c2 _1/4B2 A6 z2 B2 A2  | 
w:   |   | 
G2 A4 z4 z2 cc _1/4B2  | c2 d2 c2 d4 cc _1/4B2 c2  | \
w:   |   | 
d2 c2 d4 z2 gg g2 a2  | 
w:   | 
^f2 _7/8e2 d2 c2 c2 _1/4B2 B2 A2  | \
w:   | 
A4 z4 z2 g4 g2  | g4 g4 z2 g4 g2  | g2 g6 z2 g4 a2  | 
w:   |   |   | 
g2 ^f2 =e2 d2 g2 g2 e2 e2  | =e4 e2 d2 z2 d4 d2  | \
w:   |   | 
d2 d6 z2 c2 _1/4B2 c2  | d4 z4 z4 A2 _1/4B2  | 
w:   |   | 
c2 d6 d2 d4 d2  | d4 d2 c2 d2 _7/8e4 d2  | \
w:   |   | 
c2 _1/4B2 c4 z4 g2 g2  | g4 g2 d2 c2 c6  | 
w:   |   | 
_1/4B2 A6 z2 B2 A2 G2  | A4 z4 z2 cc _1/4B2 c2  | \
w:   |   | 
d2 c2 d4 cc _1/4B2 c2 d2  | 
w:   | 
c2 d4 z2 gg g2 a2 ^f2  | _7/8e2 d2 c2 c2 _1/4B2 B2 A2 A4 z4 z2 ^f4 f2 f2  | 
w:   |   | 
^f6 z2 g4 g2 g2  | g6 z2 g4 a2 g2  | \
w:   |   | 
^f2 =e2 d2 g2 g2 e2 e2 e4 e2 d2 z2 d4 d2 d2  | 
w:   | 
d6 z2 c2 _1/4B2 c2 d4 z4 z4 A2 B2 c2  | \
w:   | 
d6 d2 d6 d4 d2 c2 d2 _7/8e4 d2 c2  | 
w:   | 
_1/4B2 c4 z4 g2 g2 g4 g2 d2 c2 c6 B4 A4 z2 B2 A2 G2 A4 z4 z2 cc B2 c2 d2  | 
w:   | 
c2 d4 cc _1/4B2 c2 d2 c2  | d4 z2 gg g2 a2 ^f2 _7/8e2  | \
w:   |   | 
d2 c2 c2 _1/4B2 B2 A2 A4  | 
w:   | 
z4 z4 _1/4B2 c2 d4  | d4 d2 d6 d2 d6 d2 _7/8e4 d2 c2 _1/4B2  | \
w:   |   | 
A4 z4 _1/4B2 c2 d4  | d4 d4 d4 d2 d6 d2 _7/8e4 d2 c2 _1/4B2  | 
w:   |   | 
A4 z4 _1/4B2 c2 d2 d6 d2 d4 d2 d2 d6 d2 _7/8e4 d2 c2 B2  | \
w:   | 
A4 z4 g2 g2 g4  | 
w:   | 
g2 d2 c2 c4 c2 _1/4B2 A6 z2 B2 A2 G2 A4  | \
w:   | 
z4 z2 cc _1/4B2 c2 d2 c2  | d4 cc _1/4B2 c2 d2 c2 d4 z2 gg g2 a2 ^f2 _7/8e2 d2  | 
w:   |   | 
c2 c2 _1/4B2 B2 A2 A4 z4 z2 g4 g2 g4 g4 z2 g4 g2 g2 g6 z2 g4 a2 g2 ^f2 =e2  | 
w:   | 
d2 g2 g2 =e2 e2 e4 e2  | d2 z2 d4 d2 d2 d6 z2 c2 _1/4B2 c2 d4 z4 z4 A2 B2 c2 d6 d2 d4 d2 d4 d2  | 
w:   |   | 
c2 d2 _7/8e4 d2 c2 _1/4B2 c4 z4 g2 g2 g4 g2  | \
w:   | 
d2 c2 c6 _1/4B2 A6 z2 B2 A2 G2 A4 z4 z2 cc B2 c2 d2 c2 d4 cc B2 c2 d2 c2 d4  | 
w:   | 
z2 gg g2 a2 ^f2 _7/8e2 d2 c2  | c2 _1/4B2 B2 A2 A4 z4  | \
w:   |   | 
z4 _1/4B2 c2 d4 d4  | d4 d4 d4 d4  | 
w:   |   | 
d2 _7/8e4 d2 c2 _1/4B2 A4  | z4 _1/4B2 c2 d2 d6  | \
w:   |   | 
d2 d4 d2 d2 d6  | d2 _7/8e4 d2 c2 _1/4B2 A4  | 
w:   |   | 
z4 _1/4B2 c2 d4 d4  | d2 d6 d4 d4  | \
w:   |   | 
d2 _7/8e4 d2 c2 _1/4B2 A4  | z4 g2 g2 g4 g2 d2  | 
w:   |   | 
c2 c6 _1/4B2 A6  | z2 _1/4B2 A2 G2 A4 z4  | \
w:   |   | 
z4 g2 g2 g4 g2 d2  | c2 c6 _1/4B2 A6  | \
w:   |   | 
z2 _1/4B2 A2 G2 A4 z4  | 
w:   | 
|


